X: 1
T: The Drunken Sailor's
R: hornpipe
M: 4/4
L: 1/8
K: Gdor
(3DE^F|G3 A GABc|dcBA GFDE|F2FG FGAB|cAFA dcBA|
G3 A GABc|dcBA GFDE|F2f2dcBA|B2G2G2:|
|:GA|B2Bc Bcde|fcAB cAFB|AFcF dFcF|AFcF dcBA|
B2BA Bcde|fcAB cAFA|G2gf dcBA|B2G2G2:|
|:Bd|g3^f ~g2fg|agfe d3 e|fcgc acgc|fcgc agfe|
d2g2~g2^ fg|agfe d2c2|dfeg (3fed cA|B2G2G2:|
|:BF|GBdB GdBd|FcAc FcAc|GBdB GBdB|cBAG FGAF|
GBdB GBdB|FAcA FGAc|dfeg (3fed cA|B2G2G2:|
|:Bd|gd (3gab gd (3gab|fcfa fcfa|gdgb gcgb|fdcA dBcA|
BGBd AFAc|BABd c=Bc_e|dfeg (3fed cA|B2G2G2:|


Tune 553	Setting 13517

